packages/hms_room_kit/lib/src/assets/icons/permission_lock.svg

<svg width="80" height="80" viewBox="0 0 80 80" fill="none" xmlns="http://www.w3.org/2000/svg">
<g id="Coloured Icons/Private">
<path id="Vector" d="M73.4017 40.2034C73.4017 58.6118 58.4767 73.5368 40.0683 73.5368C21.66 73.5368 6.735 58.6118 6.735 40.2034C6.735 21.7951 21.66 6.87012 40.0683 6.87012C58.4767 6.87012 73.4017 21.7951 73.4017 40.2034Z" fill="url(#paint0_linear_8435_162130)"/>
<path id="Vector_2" d="M28.25 30.355V33.0816H31.8867V30.355C31.8867 25.8366 35.55 22.1733 40.0683 22.1733C44.5867 22.1733 48.25 25.8366 48.25 30.355V33.0816H51.8867V30.355C51.8867 23.8283 46.595 18.5366 40.0683 18.5366C33.5417 18.5366 28.25 23.8283 28.25 30.355Z" fill="url(#paint1_linear_8435_162130)"/>
<path id="Vector_3" d="M55 58.3334H25C23.1583 58.3334 21.6667 56.8417 21.6667 55.0001V51.6667H58.3333V55.0001C58.3333 56.8417 56.8417 58.3334 55 58.3334Z" fill="#C48C00"/>
<path id="Vector_4" d="M58.3333 38.3333H21.6667V44.9999H58.3333V38.3333Z" fill="#EDBE00"/>
<path id="Vector_5" d="M58.3333 45H21.6667V51.6667H58.3333V45Z" fill="#E3A600"/>
<path id="Vector_6" d="M58.3333 38.3334H21.6667V35.0001C21.6667 33.1584 23.1583 31.6667 25 31.6667H55C56.8417 31.6667 58.3333 33.1584 58.3333 35.0001V38.3334Z" fill="#FAD500"/>
<path id="Vector_7" d="M43.3333 43.3333C43.3333 41.4917 41.8417 40 40 40C38.1583 40 36.6667 41.4917 36.6667 43.3333C36.6667 44.5633 37.3417 45.6267 38.3333 46.205V48.3333C38.3333 49.2533 39.08 50 40 50C40.92 50 41.6667 49.2533 41.6667 48.3333V46.205C42.6583 45.6267 43.3333 44.5633 43.3333 43.3333Z" fill="url(#paint2_linear_8435_162130)"/>
</g>
<defs>
<linearGradient id="paint0_linear_8435_162130" x1="11.1814" y1="11.3165" x2="46.3085" y2="46.4436" gradientUnits="userSpaceOnUse">
<stop stop-color="#F44F5A"/>
<stop offset="0.443" stop-color="#EE3D4A"/>
<stop offset="1" stop-color="#E52030"/>
</linearGradient>
<linearGradient id="paint1_linear_8435_162130" x1="40.0683" y1="30.6683" x2="40.0683" y2="16.175" gradientUnits="userSpaceOnUse">
<stop stop-color="#92A3B0"/>
<stop offset="0.015" stop-color="#A3B5C4"/>
<stop offset="0.032" stop-color="#AEC2D1"/>
<stop offset="0.046" stop-color="#B2C6D6"/>
</linearGradient>
<linearGradient id="paint2_linear_8435_162130" x1="40" y1="50.0967" x2="40" y2="40.485" gradientUnits="userSpaceOnUse">
<stop stop-color="#4B4B4B"/>
<stop offset="1" stop-color="#3B3B3B"/>
</linearGradient>
</defs>
</svg>

<svg xmlns="http://www.w3.org/2000/svg" width="80" height="80" fill="none" viewBox="0 0 80 80"><path fill="url(#a)" d="M73.402 40.203c0 18.409-14.925 33.334-33.334 33.334-18.408 0-33.333-14.925-33.333-33.334C6.735 21.795 21.66 6.87 40.068 6.87c18.409 0 33.334 14.925 33.334 33.333Z"/><path fill="url(#b)" d="M28.25 30.355v2.727h3.637v-2.727a8.182 8.182 0 0 1 16.363 0v2.727h3.637v-2.727c0-6.527-5.292-11.818-11.819-11.818-6.526 0-11.818 5.291-11.818 11.818Z"/><path fill="#C48C00" d="M55 58.333H25A3.332 3.332 0 0 1 21.667 55v-3.333h36.666V55A3.332 3.332 0 0 1 55 58.333Z"/><path fill="#EDBE00" d="M58.333 38.333H21.667V45h36.666v-6.667Z"/><path fill="#E3A600" d="M58.333 45H21.667v6.667h36.666V45Z"/><path fill="#FAD500" d="M58.333 38.333H21.667V35A3.332 3.332 0 0 1 25 31.667h30A3.332 3.332 0 0 1 58.333 35v3.333Z"/><path fill="url(#c)" d="M43.333 43.333a3.332 3.332 0 1 0-6.666 0c0 1.23.675 2.294 1.666 2.872v2.128a1.667 1.667 0 0 0 3.334 0v-2.128a3.323 3.323 0 0 0 1.666-2.872Z"/><defs><linearGradient id="a" x1="11.181" x2="46.309" y1="11.316" y2="46.444" gradientUnits="userSpaceOnUse"><stop stop-color="#F44F5A"/><stop offset=".443" stop-color="#EE3D4A"/><stop offset="1" stop-color="#E52030"/></linearGradient><linearGradient id="b" x1="40.068" x2="40.068" y1="30.668" y2="16.175" gradientUnits="userSpaceOnUse"><stop stop-color="#92A3B0"/><stop offset=".015" stop-color="#A3B5C4"/><stop offset=".032" stop-color="#AEC2D1"/><stop offset=".046" stop-color="#B2C6D6"/></linearGradient><linearGradient id="c" x1="40" x2="40" y1="50.097" y2="40.485" gradientUnits="userSpaceOnUse"><stop stop-color="#4B4B4B"/><stop offset="1" stop-color="#3B3B3B"/></linearGradient></defs></svg>
